T: Miss Wedderburn's
M: 4/4
L: 1/8
K: Gmaj
D3 E G3 B|AGAB AGEG|D3 E G3 B|1AGAB G2 G2:|2AGAB G2 AB|
|:c2 ec B2 dB|AGAB AGEG|1c2 ec B2 dB|AGAB G2 AB:|2D3 E G3 B|AGAB G2 G2||
